assets/img/braze_icons/chevron-down.svg

<svg fill="none" height="24" viewBox="0 0 24 24" width="24" xmlns="http://www.w3.org/2000/svg"><path clip-rule="evenodd" d="m5.29289 8.29289c.39053-.39052 1.02369-.39052 1.41422 0l5.29289 5.29291 5.2929-5.29291c.3905-.39052 1.0237-.39052 1.4142 0 .3905.39053.3905 1.02369 0 1.41422l-6 5.99999c-.3905.3905-1.0237.3905-1.4142 0l-6.00001-5.99999c-.39052-.39053-.39052-1.02369 0-1.41422z" fill="#801ed7" fill-rule="evenodd"/></svg>

<svg width="24" height="24" viewBox="0 0 24 24" fill="none" xmlns="http://www.w3.org/2000/svg">
<path fill-rule="evenodd" clip-rule="evenodd" d="M5.29289 8.29289C5.68342 7.90237 6.31658 7.90237 6.70711 8.29289L12 13.5858L17.2929 8.29289C17.6834 7.90237 18.3166 7.90237 18.7071 8.29289C19.0976 8.68342 19.0976 9.31658 18.7071 9.70711L12.7071 15.7071C12.3166 16.0976 11.6834 16.0976 11.2929 15.7071L5.29289 9.70711C4.90237 9.31658 4.90237 8.68342 5.29289 8.29289Z" fill="#801ED7"/>
</svg>
